src/assets/images/icons/logo-vertical.svg

<svg width="393" height="267" viewBox="0 0 393 267" fill="none" xmlns="http://www.w3.org/2000/svg">
<g clip-path="url(#clip0_23_27018)">
<path d="M276.22 65.85C305.11 96.6 274.85 143.95 234.21 133.03C218.5 128.81 210.3 114.37 198.72 104.45C184.99 116.25 174.71 132.25 155.11 134.33C112.38 138.86 90.18 89.08 123.17 61.31C144.11 43.68 174.39 51.55 188.44 73.56L176 85.84C171.35 81.88 168.63 76.81 163.25 73.27C139.94 57.93 115.11 87.04 130.44 107.24C139.57 119.27 155.6 119.44 166.81 110.17C183.38 96.46 198.03 76.41 214.53 62.46C232.76 47.05 259.79 48.37 276.21 65.85H276.22ZM239.27 69.27C228.08 70.79 219.44 84.08 211.08 90.81C218.52 97.76 227.31 111.81 236.94 115.26C258.64 123.05 277.52 100.29 265.1 80.73C259.47 71.86 249.66 67.86 239.27 69.26V69.27Z" fill="#444CE7"/>
<path d="M19.6001 156.51L35.8401 217.76L51.5801 156.57L69.3301 156.51L84.4301 215.45L100.33 156.44L119.7 156.46L94.7601 243.14L75.2301 243.16L60.4201 184.8L44.2401 242.65C43.8101 243.28 43.1601 243.17 42.5301 243.25C39.4701 243.63 30.4901 243.63 27.4301 243.25C26.7901 243.17 26.1401 243.29 25.7201 242.65L0.0100988 156.71C-0.239901 155 3.1101 156.44 4.3001 156.48C9.3801 156.67 14.5201 156.24 19.5901 156.51H19.6001Z" fill="#444CE7"/>
<path d="M252.13 156.46V203.31L277.87 177.28H296.66L268.33 207.65L296.66 243.22H276.71L253.85 214.02L252.13 213.14V243.22H235.36V156.46H252.13Z" fill="#444CE7"/>
<path d="M344.37 177.28L360.56 222.4L375.02 177.28H392.66C392.81 179.04 392.03 180.6 391.51 182.2C384.73 203.08 375.91 227.05 367.65 247.41C361.29 263.08 351.27 270.13 333.94 264.64L333.67 253.05C341.85 254.15 351.04 250.3 351.59 241.25L327.29 180.49L326.74 177.28H344.38H344.37Z" fill="#444CE7"/>
<path d="M143.86 178.02C190.41 172.45 193.92 242.74 150.63 244.94C107.91 247.11 106.3 182.51 143.86 178.02ZM147.32 192.46C126.21 194.97 130.34 236.74 153.37 229.75C171.35 224.3 166.82 190.14 147.32 192.46Z" fill="#444CE7"/>
<path d="M238.68 0.420008C276.43 -5.44999 277.45 51.7 239.76 47.07C213.96 43.9 213.56 4.33001 238.68 0.420008Z" fill="#444CE7"/>
<path d="M146.74 0.430023C181.01 -4.20998 185.09 43.88 154.04 47.06C121.73 50.37 118.68 4.23002 146.74 0.430023Z" fill="#444CE7"/>
<path d="M304.76 243.22V156.46H320.66C320.86 156.46 321.3 155.43 322.11 156.75V242.36L321.24 243.23H304.76V243.22Z" fill="#444CE7"/>
<path d="M205.87 177.28V187.11C207.72 185.16 208.83 182.75 211.06 181.02C215.48 177.59 221.29 177.1 226.69 177.27V193.47C219.88 193.09 212.57 193.66 208.65 200.01C207.76 201.46 205.87 206.77 205.87 208.22V243.21H189.1V177.27H205.87V177.28Z" fill="#444CE7"/>
</g>
<defs>
<clipPath id="clip0_23_27018">
<rect width="392.68" height="266.49" fill="white"/>
</clipPath>
</defs>
</svg>

<svg xmlns="http://www.w3.org/2000/svg" width="393" height="267" fill="none" viewBox="0 0 393 267"><g fill="#444ce7" clip-path="url(#a)"><path d="M276.22 65.85c28.89 30.75-1.37 78.1-42.01 67.18-15.71-4.22-23.91-18.66-35.49-28.58-13.73 11.8-24.01 27.8-43.61 29.88-42.73 4.53-64.93-45.25-31.94-73.02 20.94-17.63 51.22-9.76 65.27 12.25L176 85.84c-4.65-3.96-7.37-9.03-12.75-12.57-23.31-15.34-48.14 13.77-32.81 33.97 9.13 12.03 25.16 12.2 36.37 2.93 16.57-13.71 31.22-33.76 47.72-47.71 18.23-15.41 45.26-14.09 61.68 3.39zm-36.95 3.42c-11.19 1.52-19.83 14.81-28.19 21.54 7.44 6.95 16.23 21 25.86 24.45 21.7 7.79 40.58-14.97 28.16-34.53-5.63-8.87-15.44-12.87-25.83-11.47zM19.6 156.51l16.24 61.25 15.74-61.19 17.75-.06 15.1 58.94 15.9-59.01 19.37.02-24.94 86.68-19.53.02-14.81-58.36-16.18 57.85c-.43.63-1.08.52-1.71.6-3.06.38-12.04.38-15.1 0-.64-.08-1.29.04-1.71-.6L.01 156.71c-.25-1.71 3.1-.27 4.29-.23 5.08.19 10.22-.24 15.29.03zM252.13 156.46v46.85l25.74-26.03h18.79l-28.33 30.37 28.33 35.57h-19.95l-22.86-29.2-1.72-.88v30.08h-16.77v-86.76zM344.37 177.28l16.19 45.12 14.46-45.12h17.64c.15 1.76-.63 3.32-1.15 4.92-6.78 20.88-15.6 44.85-23.86 65.21-6.36 15.67-16.38 22.72-33.71 17.23l-.27-11.59c8.18 1.1 17.37-2.75 17.92-11.8l-24.3-60.76-.55-3.21h17.64zM143.86 178.02c46.55-5.57 50.06 64.72 6.77 66.92-42.72 2.17-44.33-62.43-6.77-66.92m3.46 14.44c-21.11 2.51-16.98 44.28 6.05 37.29 17.98-5.45 13.45-39.61-6.05-37.29"/><path d="M238.68.42c37.75-5.87 38.77 51.28 1.08 46.65-25.8-3.17-26.2-42.74-1.08-46.65M146.74.43c34.27-4.64 38.35 43.45 7.3 46.63-32.31 3.31-35.36-42.83-7.3-46.63M304.76 243.22v-86.76h15.9c.2 0 .64-1.03 1.45.29v85.61l-.87.87h-16.48zM205.87 177.28v9.83c1.85-1.95 2.96-4.36 5.19-6.09 4.42-3.43 10.23-3.92 15.63-3.75v16.2c-6.81-.38-14.12.19-18.04 6.54-.89 1.45-2.78 6.76-2.78 8.21v34.99H189.1v-65.94h16.77z"/></g><defs><clipPath id="a"><path fill="#fff" d="M0 0h392.68v266.49H0z"/></clipPath></defs></svg>
